X: 2
T: Orvetta Waltz
C: E.B.Spencer 1879
R: waltz
N: "Composed and Dedicated to Miss Mary E.R.Johann by E.B.Spencer"
N: Publisher: Boston: Ditson, Oliver, 1879.
Z: 2009 John Chambers <jc:trillian.mit.edu>
S: http://lcweb2.loc.gov/cgi-bin/query/S?ammem/mussm:@OR(@field(TITLE+@od1(Orvetta+waltz++))+@field(ALTTITLE+@od1(Orvetta+waltz++)))
F: http://memory.loc.gov/music/sm/sm1879/11900/11920/002.tif
N: Original in Ab and 3/8 meter, notes half this length.
M: 3/4
L: 1/8
K: G
"A"\
|::: "G"D3 EDC | B,6 | "C"G3 AGF | E6 \
|  "D"A3 BAG | F2 f2 e2 \
|1,3 "D7"d3 edc | B6 \
:|2,4 "G"d2 Bb a2 | g4 z2 :|
"B"\
|::: "G"[B3G3] [BG][BG][BG] | [B2G2] [A2F2] [G2E2] \
|  "C"[E3C3] [EC][EC][EC] | [E2C2] [F2D2] [G2E2] \
|  "D"[A3F3] [AF][AF][AF] | "D7"[A2F2] [c2A2] [c2A2] \
|1,3 "C"[e3c3] [ec][ec][ec] | "G"[d4B4] z2 \
:|2,4 "G"[B4D4] [A2C2] | [G4B,4] z2 :|
"C"\
|::: "G"D4 B,D | "C"G4 z2 | E4 CE | "D"A4 z2 \
|1,3 "D"A3 BAG | F2 f2 e2 | "D7"d2 ed c2 | "G"B4 z2 \
:|2,4 "D"AB AG FG | F2 f2 e2 | "G"d2 Bb a2 | g4 z2 :|
"D"\
|::: "G"B3 BBB | B2 A2 G2 \
|  "C"E3 EEE | E2 F2 G2 \
|  "D"A3 AAA \
|1,3 A2 B2 c2 |  "C"e3 eee | "G"d4 z2 \
:|2,4 "D7"A2 c2 c2 |  "G"B4 A2 | G4 z2 :|
"E"\
|::: "Em"B,3 EGA | B4 A2 | "B7"G3  AGF | "Em"E6 \
|    "Em"B,3 EGA | B4 A2 | "B7"G4  F2 | "Em"E6 :::|
P: A
P: B
"F"\
|::: "G"D4 (3B,DG | B6 | "C"G4 (3EGc | e6 | "D"A4 (3FAd \
|1,3 f4 e2 | "D7"d4 c2 | "G"B6 \
:|2,4 "D7"f4 ed | "G"B2 b2 a2 | g4 z2 :|
P: D
